imgs/linkedin.svg

<svg width="18" height="18" viewBox="0 0 18 18" fill="none" xmlns="http://www.w3.org/2000/svg">
<g clip-path="url(#clip0_1_419)">
<path d="M0 9C0 4.02938 4.02938 0 9 0C13.9706 0 18 4.02938 18 9C18 13.9706 13.9706 18 9 18C4.02938 18 0 13.9706 0 9Z" fill="#0077B5"/>
<path fill-rule="evenodd" clip-rule="evenodd" d="M6.49447 5.55862C6.49447 6.147 6.05159 6.61762 5.34022 6.61762H5.32747C4.64272 6.61762 4.19984 6.147 4.19984 5.55862C4.19984 4.9575 4.65622 4.5 5.35372 4.5C6.05122 4.5 6.48134 4.9575 6.49447 5.55862ZM6.36022 7.45425V13.5825H4.32022V7.45425H6.36022ZM13.7155 13.5825V10.0688C13.7155 8.18625 12.7093 7.31025 11.3672 7.31025C10.2846 7.31025 9.79972 7.905 9.52897 8.32238V7.45425H7.48897C7.51597 8.0295 7.48897 13.5825 7.48897 13.5825H9.52897V10.1599C9.52897 9.97688 9.54209 9.79425 9.59609 9.663C9.74347 9.297 10.0791 8.91825 10.6423 8.91825C11.3811 8.91825 11.6762 9.48037 11.6762 10.3039V13.5825H13.7155Z" fill="white"/>
</g>
<defs>
<clipPath id="clip0_1_419">
<rect width="18" height="18" fill="white"/>
</clipPath>
</defs>
</svg>

<svg xmlns="http://www.w3.org/2000/svg" width="18" height="18" fill="none" xmlns:v="https://vecta.io/nano"><g clip-path="url(#A)"><path d="M0 9a9 9 0 1 1 18 0A9 9 0 1 1 0 9z" fill="#0077b5"/><path fill-rule="evenodd" d="M6.494 5.559c0 .588-.443 1.059-1.154 1.059h-.013c-.685 0-1.128-.471-1.128-1.059 0-.601.456-1.059 1.154-1.059s1.128.457 1.141 1.059zM6.36 7.454v6.128H4.32V7.454h2.04zm7.355 6.128v-3.514c0-1.883-1.006-2.759-2.348-2.759-1.083 0-1.567.595-1.838 1.012v-.868h-2.04v6.128h2.04V10.16c0-.183.013-.366.067-.497.147-.366.483-.745 1.046-.745.739 0 1.034.562 1.034 1.386v3.279h2.039z" fill="#fff"/></g><defs><clipPath id="A"><path fill="#fff" d="M0 0h18v18H0z"/></clipPath></defs></svg>
